X: 1372
T: An Saighdiúir Tréighthe
R: waltz
M: 3/4
K: Cmajor
ED|C2 E2 G2|c2 d2 cB|A2 G4|
cB|A2 G2 ED|C2 E2 G2|A6||
AB|c2 d2 cB|A2 c2 ED|ED C4|
CD|E2 A2 G2|E2 D2 C2|C6|

